X:0003
M:2/4
L:1/8
Q:1/4=104
K:G
g>fgd|ecBG|g>fge|a>gfd|g>fgd|ecBG|A>cBG|(D/G/)(F/A/) G2:|

